kora/actions/scalable/icon_console.svg

<svg xmlns="http://www.w3.org/2000/svg" style="fill-rule:evenodd;clip-rule:evenodd;stroke-linejoin:round;stroke-miterlimit:2" width="100%" height="100%" version="1.1" viewBox="0 0 16 16" xml:space="preserve">
 <defs>
  <style id="current-color-scheme" type="text/css">
   .ColorScheme-Text { color:#dfdfdf; } .ColorScheme-Highlight { color:#4285f4; } .ColorScheme-NeutralText { color:#ff9800; } .ColorScheme-PositiveText { color:#4caf50; } .ColorScheme-NegativeText { color:#f44336; }
  </style>
 </defs>
 <rect style="fill:currentColor;fill-opacity:0.3;" class="ColorScheme-Text" width="15.184" height="10.846" x=".41" y="1.58"/>
 <path style="fill:currentColor;" class="ColorScheme-Text" d="M1,1c0,0 -1,0 -1,1l0,10c0,1 1,1 1,1l3,0l0,1c0,1 1,1 1,1l6,0c0,0 1,0 1,-1l0,-1l3,0c0,0 1,0 1,-1l0,-10c0,-1 -1,-1 -1,-1l-14,0Zm0.05,0.955l13.9,0l0,10.09l-13.9,-0l-0,-10.09Z"/>
</svg>

<svg xmlns="http://www.w3.org/2000/svg" width="16" height="16" version="1.1">
 <defs>
  <style id="current-color-scheme" type="text/css">
   .ColorScheme-Text { color:#dfdfdf; } .ColorScheme-Highlight { color:#4285f4; }
  </style>
 </defs>
 <path style="fill:currentColor;opacity:0.3" class="ColorScheme-Text" d="M 1,2 H 15 V 12 H 1 Z"/>
 <path style="fill:currentColor" class="ColorScheme-Text" d="M 1,1 C 1,1 0,1 0,2 V 12 C 0,13 1,13 1,13 H 4 V 14 C 4,15 5,15 5,15 H 11 C 11,15 12,15 12,14 V 13 H 15 C 15,13 16,13 16,12 V 2 C 16,1 15,1 15,1 Z M 2,3 H 14 V 11 H 2 Z"/>
</svg>
